video-input-antenna.svg

<svg  viewBox="0 0 24 24" fill="currentColor"><path  d="M12,5A7,7 0 0,0 5,12H7A5,5 0 0,1 12,7A5,5 0 0,1 17,12H19A7,7 0 0,0 12,5M13,14.29C13.88,13.9 14.5,13.03 14.5,12A2.5,2.5 0 0,0 12,9.5A2.5,2.5 0 0,0 9.5,12C9.5,13 10.12,13.9 11,14.29V17.59L7.59,21L9,22.41L12,19.41L15,22.41L16.41,21L13,17.59V14.29M12,1A11,11 0 0,0 1,12H3A9,9 0 0,1 12,3A9,9 0 0,1 21,12H23A11,11 0 0,0 12,1Z"/></svg>

<svg fill="currentColor" viewBox="0 0 24 24"><path d="M12 5a7 7 0 0 0-7 7h2a5 5 0 0 1 5-5 5 5 0 0 1 5 5h2a7 7 0 0 0-7-7m1 9.29c.88-.39 1.5-1.26 1.5-2.29A2.5 2.5 0 0 0 12 9.5 2.5 2.5 0 0 0 9.5 12c0 1 .62 1.9 1.5 2.29v3.3L7.59 21 9 22.41l3-3 3 3L16.41 21 13 17.59zM12 1A11 11 0 0 0 1 12h2a9 9 0 0 1 9-9 9 9 0 0 1 9 9h2A11 11 0 0 0 12 1"/></svg>
